build/service/ReadCheckOutline.svg

<svg xmlns="http://www.w3.org/2000/svg" fill="none" viewBox="0 0 24 24" focusable="false"><path d="M0 0H24V24H0z"/><path fill="#74767B" fill-rule="evenodd" d="M19.9917 9.53337C20.2358 9.27015 20.2203 8.85888 19.9571 8.61479C19.6938 8.3707 19.2826 8.38621 19.0385 8.64944L12.5518 15.6447C12.3077 15.908 12.3232 16.3192 12.5865 16.5633C12.8497 16.8074 13.2609 16.7919 13.505 16.5287L19.9917 9.53337ZM9.96713 16.5263C9.69713 16.8163 9.23713 16.8263 8.95713 16.5463L4.67236 12.3111C4.42236 12.0611 4.42236 11.6411 4.67236 11.3911C4.92236 11.1411 5.34236 11.1411 5.59236 11.3911L9.43713 15.1863L15.4842 8.66093C15.7242 8.39093 16.1442 8.38093 16.4042 8.62093C16.6642 8.86093 16.6842 9.27093 16.4442 9.54093L9.96713 16.5263Z"/></svg>

<svg xmlns="http://www.w3.org/2000/svg" fill="none" viewBox="0 0 24 24" focusable="false"><path fill="#74767B" fill-rule="evenodd" d="M19.99 9.53a.65.65 0 0 0-.04-.92.66.66 0 0 0-.92.03l-6.48 7a.65.65 0 0 0 .03.92c.26.24.68.23.92-.04zM9.96 16.52c-.27.29-.73.3-1.01.02l-4.28-4.23a.66.66 0 0 1 0-.92c.25-.25.67-.25.92 0l3.84 3.79 6.05-6.52a.65.65 0 0 1 .92-.04c.26.24.28.65.04.92z"/></svg>
